X: 256
T:Unknown Irish Jig
D:Peter Wyper, Melodian, 78rpm (~1908)
N:IrTrad, 6/99
Z:Nigel Gatherer
M:6/8
L:1/8
K:D
A|DFF DFF|EGG EGG|FAA dcd|fee ecA|DFF DFF|EGG EGG|
FAd cBc|1edd d2:|2edd dcd||f3 d3|eee e3|g3 c3|ddd d3|
f3 d3|eee e3|g3 c3|ddd dcB|A3 F2G|A3 F2G|
AFA dAd|fed cBA|G3 E2F|GAG E2F|GBA AFE|DDD D2|]
